X: 1
T: Palm Tree, The
M: 4/4
L: 1/8
R: reel
K: Dmaj
AF~F2 dfaf|g2ag fddf|eAce d=cAF|GBAF ~G3B|
AF~F2 d~f3|g2ag fddf|ea~a2 aged|cAGE FDD2:|
af~f2 dafd|(fg)ed cAAG|FGAF GBed|ca~a2 bagb|
af~f2 dafd|(fg)ed cAAG|FGAF GBed|cAGE FDD2:|
